X: 6
T:Alabama Jubilee
% Nottingham Music Database
S:Trad, via EF
M:4/4
L:1/4
K:G
d^c d|"E7"ed Be-|"E7"ed2B|"E7"ed Be-|"E7"e4|"A7"e^c Ae-|"A7"e^c2A|"A7"e^c Ae-|
"A7"e^d e_f|"D7"f^e f=e-|"D7"ed2e|"D7"f^e f=e-|"D7"ed ef|"G"g2 eg|"G"ed Bd|
"G"g4-|"G"gd ^cd|"E7"ed Be-|"E7"ed2B|"E7"ed Be-|"E7"e4|"Am"A^G AB|"Am"cB cd|
"Am"e2 e2|"D7"ef ga|"G"b4|"B7"a4|"Em"g2 "D"e2|"G"d2 cd|"A7"eg eg|"D7"f2 d2|\
"G"g4|"G"g||


